!!!SOCIAL_FUNCTION:	dance songs
!!!PDT:	1932
!!!OTL: No_119_Dancing_Song_(e).krn
!!!REG: Southwest
!!!LANG: Non-Tone
!!!LING_GROUP: Yuman-Cochimi
**kern	**kern
*staff2	*staff1
=1-	=1-
*clefF4	*clefF4
*k[b-e-]	*k[b-e-]
*M3/4	*M3/4
2.r	2r
.	8.r
.	16B-\
=2	=2
8GG/	8.B-\L
16r	.
16GG/	16B-\Jk
8GG/	4B-\
16r	.
16GG/	.
8GG/	8.B-\L
16r	.
16GG/	16c\Jk
=3	=3
8GG/	4B-\
16r	.
16GG/	.
8GG/	4..B-\
16r	.
16GG/	.
8GG/	.
16r	.
16GG/	16B-\
=4	=4
2.r	8.B-\L
.	16B-\Jk
.	4B-\
.	8.B-\L
.	16c\Jk
=5	=5
2.r	4B-\
.	4B-\
.	4r
=6	=6
=	=
*M4/4	*M4/4
1r	8.B-\L
.	16B-\Jk
.	4B-\
.	8B-\
.	8r
.	8.B-\L
.	16c\Jk
=7||	=7||
*M2/4	*M2/4
2r	4..B-\
.	16B-\
=8||	=8||
*M3/4	*M3/4
2.r	8.B-\L
.	16B-\Jk
.	4B-\
.	8.B-\L
.	16c\Jk
=9	=9
2.r	8.B-\L
.	16B-\Jk
.	4B-\
.	4r
=10||	=10||
*M4/4	*M4/4
1r	8.B-\L
.	16B-\Jk
.	4B-\
.	8B-\
.	8r
.	8.B-\L
.	16c\Jk
=11||	=11||
*M2/4	*M2/4
2r	4..B-\
.	16B-\
=12||	=12||
*M3/4	*M3/4
2.r	8.B-\L
.	16B-\Jk
.	4B-\
.	8.B-\L
.	16c\Jk
=13||	=13||
*M2/4	*M2/4
2r	4B-\
.	8B-\
.	8r
=14||	=14||
*M4/4	*M4/4
1r	8.B-\L
.	16B-\Jk
.	4B-\
.	8B-\
.	8r
.	8.B-\L
.	16c\Jk
=15||	=15||
*M2/4	*M2/4
2r	4..B-\
.	16B-\
=16||	=16||
*M3/4	*M3/4
2.r	8.B-\L
.	16B-\Jk
.	4B-\
.	8.B-\L
.	16c\Jk
=17	=17
2.r	8.B-\L
.	16B-\Jk
.	4B-\
.	4r
=18	=18
2.r	2.r
=19	=19
2.r	2r
.	8d\L
.	8d\J
=20||	=20||
*M3/4	*M3/4
2.r	4..f;\
.	16d\
.	8.f\L
.	16d\Jk
=21||	=21||
*M4/4	*M4/4
1r	4f\
.	4..d\
.	16B-\LK
.	8.B-\
.	[16d\Jk
=22	=22
1r	4..d\]
.	16B-\
.	8.d\L
.	16B-\K
.	8.B-\
.	16c\Jk
=23||	=23||
*M3/4	*M3/4
2.r	4B-\
.	4r
.	8.r
.	16B-\
=24	=24
2.r	8.B-\L
.	16B-\Jk
.	4B-\
.	8.B-\L
.	16c\Jk
=25	=25
2.r	4B-\
.	4..B-\
.	16B-\
=26	=26
2.r	8.B-\L
.	16B-\Jk
.	4B-\
.	8.B-\L
.	16c\Jk
=27	=27
2.r	4B-\
.	4B-\
.	4r
=28||	=28||
*M4/4	*M4/4
1r	8.B-\L
.	16B-\Jk
.	4B-\
.	8B-\
.	8r
.	8.B-\L
.	16c\Jk
=29||	=29||
*M2/4	*M2/4
2r	4..B-\
.	16B-\
=30||	=30||
*M3/4	*M3/4
2.r	8.B-\L
.	16B-\Jk
.	4B-\
.	8.B-\L
.	16c\Jk
=31	=31
2.r	8.B-\L
.	16B-\Jk
.	4B-\
.	4r
=32||	=32||
*M4/4	*M4/4
1r	8.B-\L
.	16B-\Jk
.	4B-\
.	8B-\
.	8r
.	8.B-\L
.	16c\Jk
=33||	=33||
*M2/4	*M2/4
2r	4..B-\
.	16B-\
=34||	=34||
*M3/4	*M3/4
2.r	8.B-\L
.	16B-\Jk
.	4B-\
.	8.B-\L
.	16c\Jk
=35||	=35||
*M2/4	*M2/4
2r	4B-\
.	8B-\
.	8r
=36||	=36||
*M4/4	*M4/4
1r	8.B-\L
.	16B-\Jk
.	4B-\
.	8B-\
.	8r
.	8.B-\L
.	16c\Jk
=37||	=37||
*M2/4	*M2/4
2r	4..B-\
.	16B-\
=38||	=38||
*M3/4	*M3/4
2.r	8.B-\L
.	16B-\Jk
.	4B-\
.	8.B-\L
.	16c\Jk
=39	=39
2.r	8.B-\L
.	16B-\Jk
.	4B-\
.	4r
==	==
*-	*-
